X:1
T:Kara Duta Yaslandım
T:Kara Duta Yaslandım
T:Notasyon: Musa Çetiner
T:www.gitargitim.net
Z:Notasyon: Musa Çetiner
Z:www.gitargitim.net
%%score { 1 | 2 }
L:1/8
Q:1/4=80
M:2/4
K:C
V:1 treble-8 nm="Klasik Gitar" snm="Git."
V:2 tab stafflines=6 strings=E2,A2,D3,G3,B3,E4 
V:1
"Am" z ^F/G/ AA |"Am" dc/d/ cB |"Dm" cd dd |"Dm" dc/d/ cB |"Dm" z c/d/ dd |"Dm" dc/d/ cB | %6
w: Ka ra du ta|yas lan _ _ dım|Yağ mur yağ dı|ıs lan _ _ dım|Kı na ma yın|ah bap _ _ lar|
"F" z A/B/ cB |"G" cB/c/ BA |"Am" A4 |"Am" A4 |] %10
w: Şe ker i le|bes len _ _ dim|vay|vay|
V:2
 x !4!^F,/!3!G,/ !3!A,!3!A, | !2!D!2!C/!2!D/ !2!C!2!B, | !2!C!2!D !2!D!2!D | %3
 !2!D!2!C/!2!D/ !2!C!2!B, | x !2!C/!2!D/ !2!D!2!D | !2!D!2!C/!2!D/ !2!C!2!B, | %6
 x !3!A,/!2!B,/ !2!C!2!B, | !2!C!2!B,/!2!C/ !2!B,!3!A, | !3!A,4 | !3!A,4 |] %10

